X: 1
T: Marjorie Easton McLaughlin
C: Muriel Johnstone
R: strathspey
N: Muriel Johnstone and Bill Zobel   Tel. 0890 818884
N: Scotscores, Muse Cottage, Allanton, Duns, Beerwiskshire, TD11 3JZ, Scotland
Z: 1997 by John Chambers <jc:trillian.mit.edu>
M: C
L: 1/8
K: Bb
|: (3ded \
| "Bb"f>d B<F "Eb"G>F E<G | "Bb"F>B d<B f2 (3def | "Eb"g>f "Bb"d<B "Cm"c<B "F7"d>c | "Gm"c<B (3Bcd "Eb"e2 "F7"(3ded |
| "Bb"f>d B<F "Ab"E>F G<E | "Bb"F>B d<B f2 (3def | "Eb"g>f "Bb"d<B "Cm"c<B "F7"d>c | "Gm"c<B (3Bcd "Eb"e2 "F7"d>c |]
[| "Bb"B<B "Eb"G<E "Bb"F2 (3DEF | "Eb"G<B "F"A<c "Gm"B>c "Bb"dB | "Cm"G<B "F7"G<E "Bb"F2 (3def | "Eb"g>f "Bb"d<B "F"c3 F | "Cm"G<B "F7"G<E "Bb"F2 (3DEF |
| "Eb"G<B "F"A<c "Gm"B>d "F7"c<e |1 "Bb"(3def "Eb"g>f "Bb"d<B "F7"d<c | "Gm"c<B (3Bcd "Cm"e2 \
                                                               :|2 "Bb"(3def "Eb"g>f "Bb"f<d d<B | "Cm"c<B "F7"d>c "Bb"B2 |]
